X:1
T:Title
%%score { ( 1 3 ) | ( 2 4 ) }
L:1/8
M:3/4
K:D
V:1 treble nm="Grand Piano"
V:3 treble 
V:2 bass 
V:4 bass 
V:1
 z2 z2[Q:1/4=108] [FA][FA] | [FA]2 [DF]2 [EG]2 | [FA]4 AA | z2 z2 d2 | [FA]4 [FA][FA] | %5
 [FA]2 [EG]2 [DF]2 | [CE]4 [CA]B | c2 c2 B2 | [CA]4 [FA][FA] | [FA]2 [DF]2 [EG]2 | [FA]4 AA | %11
 z2 z2 d2 |[M:2/4] [FA]4 |[M:1/4] [FA][FA] |[M:3/4] [FA]2 [DF]2 [Fd]2 |[M:7/8] c2 B3 d2 | %16
[M:3/4] d2 [A,DF]2[K:bass] [G,CE]2 | [F,D]6 |[M:1/4][K:treble] [DFA]2 |[M:3/4] B2 B2 B2 | d4 B2 | %21
 [GB]2 [FA]2 [DF]2 | [FA]4 [FA]2 | [DFA]2 [EG]2 [DF]2 | [CE]4 [GB]2 | [GB]2 [FA]2 [EG]2 | %26
 [DF]4 [DF]2 | [DF]2 [DB]2 [Fd]2 | d2 c2 c2 | B2 d2 B2 | [FA]4 [FA]2 | [FA]2 [DF]2 [Fd]2 | %32
[M:7/8] c2 B3 d2 |[M:3/4] d2 [DF]2 [CE]2 | D6 |] %35
V:2
 z2 z2 [D,D][D,D] | [D,D]2 [D,A,]2 [D,D]2 | [D,D]4 [D,F,D][D,F,D] | [D,G,D]2 [D,A,D]2 [B,D]C | %4
 [D,D]4 [D,D][D,D] | [D,D]2 [D,A,]2 [D,A,]2 | [A,,A,]4 z D | [E,A,E]2 [E,A,E]2 [E,^G,D]2 | %8
 [A,,A,]4 [D,D][D,D] | [D,D]2 [D,A,]2 [D,D]2 | [D,D]4 [D,F,D][D,F,D] | [D,G,D]2 [D,A,D]2 [B,D]C | %12
[M:2/4] [D,D]4 |[M:1/4] [D,D][D,D] |[M:3/4] [D,D]2 [D,A,]2 [D,A,]2 | %15
[M:7/8][K:treble] [G,B,G]2 [G,DG]3 [^G,B,=F]2 |[M:3/4] [A,F]2[K:bass] A,,2 A,,2 | D,6 | %18
[M:1/4] D,2 |[M:3/4][K:treble] [G,DG]2 [G,DG]2 [G,DG]2 | [G,B,G]4 [G,DG]2 | [D,D]2 [D,D]2 [D,A,]2 | %22
 [D,D]4 [D,D]2 | A,,2 [A,,A,]2 [A,,A,]2 | [A,,A,]4 [A,,A,]2 | [A,,A,]2 [A,,A,]2 [A,,A,]2 | %26
 [D,A,]4 [D,A,]2 | [B,,B,]2 [B,,F,]2 [B,,B,]2 | [F,B,F]2 [F,^A,F]2 [F,A,E]2 | %29
 [G,B,D]2 [G,B,D]2 [G,DG]2 | [D,D]4 [D,D]2 | [D,D]2 [D,A,]2 [D,A,]2 | %32
[M:7/8][K:treble] [G,B,G]2 [G,DG]3 [^G,B,=F]2 |[M:3/4] [A,F]2[K:bass] [A,,A,]2 [A,,G,]2 | %34
 [D,F,]6 |] %35
V:3
 x6 | x6 | x6 | B2 c2 z E | x6 | x6 | x6 | x6 | x6 | x6 | x6 | B2 c2 z E |[M:2/4] x4 |[M:1/4] x2 | %14
[M:3/4] x6 |[M:7/8] x7 |[M:3/4] x4[K:bass] x2 | x6 |[M:1/4][K:treble] x2 |[M:3/4] x6 | x6 | x6 | %22
 x6 | x6 | x6 | x6 | x6 | x6 | x6 | x6 | x6 | x6 |[M:7/8] x7 |[M:3/4] x6 | x6 |] %35
V:4
 x6 | x6 | x6 | z2 z2 D,2 | x6 | x6 | z2 z2 [A,,A,]2 | x6 | x6 | x6 | x6 | z2 z2 D,2 |[M:2/4] x4 | %13
[M:1/4] x2 |[M:3/4] x6 |[M:7/8][K:treble] x7 |[M:3/4] x2[K:bass] x4 | x6 |[M:1/4] x2 | %19
[M:3/4][K:treble] x6 | x6 | x6 | x6 | x6 | x6 | x6 | x6 | x6 | x6 | x6 | x6 | x6 | %32
[M:7/8][K:treble] x7 |[M:3/4] x2[K:bass] x4 | x6 |] %35

